X:1
T:Allemande BWV 836
T:Allemande  BWV 836
T:aus dem Klavierbüchlein für Wilhelm Friedemann Bach
T:BWV 836
C:Johann Sebastian Bach
Z:BWV 836
%%score { 1 | ( 2 3 ) }
L:1/8
M:4/4
K:F
V:1 treble nm="Piano" snm="Pno."
V:2 bass 
V:3 bass 
V:1
 d | _e>Bcd BA/B/ Gg | f_e/d/ ef dc/d/ Bb | ba/g/ aa adgg | g/a/f/g/ e>d d2 A>G | AG/F/ E>D D3 a | %6
 a/g/^f/e/ dc' c'Pb/a/ bb | a/c'/=b/_b/ a/^g/=g/a/ ^fd z g | _ed/e/ fe dB b2- | ba/g/ a2- ad g2- | %10
 g/b/a/^g/ =g/^f/=f/e/ f2 e2 | d2 z2 z/ B/A/^G/ =G/^F/=F/E/ | F2 PE2 D3 A | A/G/^F/E/ Dc cB/A/ Bc | %14
 d/c/=B/A/ Gf f_e/d/ eg | g/f/=e/d/ cb b_a/g/ a2- | ag/^f/ g2- g=a/b/ ag | ^fd z z/ d/ _e>B c>d | %18
 BA/B/ Gg/f/ _e/d/c/B/ A>G | G/d/c/d/ B/c/A/B/ G/B/A/B/ G/A/F/G/ |[K:alto] _E/D/C/B,/ A,>G, G,3 :| %21
V:2
 G, | G,2 A,^F, G,2 z [G,B,] | [A,C]2 z [F,A,] B,2 z [B,D] | C2 z C C2 B,D | ^CD DC D2 z2 | %5
 [F,D-][G,D]A,A,, D,2 D,, z | [D,D]2 [^F,D]2 [G,D]2 z B, | C2 ^C2 DD/=C/ B,G, | %8
 C2 A,2 B,2 z [B,D] | [F,C]2 z [^F,C] [G,B,]2 z B, | [A,^C]2 z2 [G,D]2 [A,C]2 | %11
 D,/D/^C/D/ D,/D/C/D/ F,2 z G, | A,2 A,,2 D,3 z | D,2 z [^F,D] [G,D]2 z A, | =B,2 z G, C2 z D | %15
[K:tenor] E2 z [EG] F3 _E/D/ | _E3 D/C/ B,2 C2 | D2[K:bass] z z/ G,/ G,2 A,^F, | G,2 B,2 C2 DD, | %19
 G,2 z2 [B,,G,]2 z2 | [C,G,]2 D,D,, G,,3 :| %21
V:3
 x | x8 | x8 | F,2 z ^F, G,3 B, | A,D, A,2 D,2 z2 | x8 | x8 | x8 | x8 | x8 | x8 | x8 | x8 | x8 | %14
 x8 |[K:tenor] x8 | x8 | x2[K:bass] x6 | x8 | x8 | x7 :| %21

